symbolic/32x32/places/folder-yellow-backup.svg

<svg xmlns="http://www.w3.org/2000/svg" width="32" height="32" version="1">
 <rect style="opacity:0.2" width="28" height="18" x="2" y="11" rx="1.4" ry="1.4"/>
 <path style="fill:#b58f1b" d="M 2,22.6 C 2,23.376 2.6244,24 3.4,24 H 28.6 C 29.376,24 30,23.376 30,22.6 V 7.4 C 30,6.6244 29.376,6 28.6,6 H 16 C 13.9,6 13.2,3 11.1,3 H 3.4 C 2.6244,3 2,3.6244 2,4.4"/>
 <rect style="opacity:0.2" width="28" height="18" x="2" y="9" rx="1.4" ry="1.4"/>
 <rect style="fill:#e4e4e4" width="24" height="11" x="4" y="8" rx="1.4" ry="1.4"/>
 <rect style="fill:#e2b322" width="28" height="18" x="2" y="10" rx="1.4" ry="1.4"/>
 <path style="opacity:0.1;fill:#ffffff" d="M 3.4004,3 C 2.6248,3 2,3.6248 2,4.4004 V 5.4004 C 2,4.6248 2.6248,4 3.4004,4 H 11.1 C 13.2,4 13.9,7 16,7 H 28.6 C 29.375,7 30,7.6248 30,8.4004 V 7.4004 C 30,6.6248 29.375,6 28.6,6 H 16 C 13.9,6 13.2,3 11.1,3 Z"/>
 <path style="fill:#4f3e0c" d="m15.607422 13.011719c-0.33596 0.021972-0.67371 0.073469-1.009766 0.154297-2.688447 0.646633-4.594183 3.061061-4.597656 5.826172a1.0001 1.0001 0 0 0 0 0.007812h-1l2 2 2-2h-1a1.0001 1.0001 0 0 0 0 -0.005859c0.0023-1.852241 1.263577-3.449661 3.064453-3.882813 1.800879-0.433152 3.651746 0.41586 4.496094 2.064453 0.844348 1.648592 0.452744 3.647246-0.951172 4.855469-1.381932 1.189304-3.520755 1.236987-5.025391 0.15625a1.0005966 1.0005966 0 0 0 -1.167968 1.625c2.245578 1.612935 5.380223 1.556995 7.498046-0.265625 2.095842-1.803701 2.68627-4.820142 1.425782-7.28125-0.945366-1.845831-2.75319-3.030673-4.732422-3.234375-0.329872-0.03395-0.664041-0.041503-1-0.019531zm0.376953 2.974609a1.0001 1.0001 0 0 0 -0.984375 1.013672v2a1.0001 1.0001 0 0 0 0.292969 0.707031l1 1a1.0001 1.0001 0 1 0 1.414062 -1.414062l-0.707031-0.707031v-1.585938a1.0001 1.0001 0 0 0 -1.015625 -1.013672z"/>
</svg>

<svg xmlns="http://www.w3.org/2000/svg" width="32" height="32" version="1"><rect style="opacity:.2" width="28" height="18" x="2" y="11" rx="1.4" ry="1.4"/><path style="fill:#b58f1b" d="M2 22.6c0 .776.624 1.4 1.4 1.4h25.2c.776 0 1.4-.624 1.4-1.4V7.4c0-.776-.624-1.4-1.4-1.4H16c-2.1 0-2.8-3-4.9-3H3.4C2.624 3 2 3.624 2 4.4"/><rect style="opacity:.2" width="28" height="18" x="2" y="9" rx="1.4" ry="1.4"/><rect style="fill:#e4e4e4" width="24" height="11" x="4" y="8" rx="1.4" ry="1.4"/><rect style="fill:#e2b322" width="28" height="18" x="2" y="10" rx="1.4" ry="1.4"/><path style="opacity:.1;fill:#fff" d="M3.4 3C2.625 3 2 3.625 2 4.4v1C2 4.625 2.625 4 3.4 4h7.7c2.1 0 2.8 3 4.9 3h12.6c.775 0 1.4.625 1.4 1.4v-1c0-.775-.625-1.4-1.4-1.4H16c-2.1 0-2.8-3-4.9-3z"/><path style="fill:#4f3e0c" d="M15.607 13.012A6.01 6.01 0 0 0 10 18.992 1 1 0 0 0 10 19H9l2 2 2-2h-1a1 1 0 0 0 0-.006 3.99 3.99 0 0 1 3.064-3.883 3.99 3.99 0 0 1 4.497 2.065 3.991 3.991 0 0 1-.952 4.855c-1.382 1.19-3.52 1.237-5.025.156a1 1 0 0 0-1.168 1.625c2.246 1.613 5.38 1.557 7.498-.265a6.007 6.007 0 0 0 1.426-7.281 6.011 6.011 0 0 0-5.733-3.254zm.377 2.974A1 1 0 0 0 15 17v2a1 1 0 0 0 .293.707l1 1a1 1 0 1 0 1.414-1.414L17 18.586V17a1 1 0 0 0-1.016-1.014z"/></svg>
